svg/fluentui-system-icons/ic_fluent_person_6_20_filled.svg

<svg width="20" height="20" viewBox="0 0 20 20" fill="none" xmlns="http://www.w3.org/2000/svg">
<path d="M6 6C6 3.79086 7.79086 2 10 2C12.2091 2 14 3.79086 14 6C14 8.20914 12.2091 10 10 10C7.79086 10 6 8.20914 6 6ZM3 13C3 11.8869 3.90315 11 5.00873 11L14.0505 11C13.4022 11.6353 13 12.5207 13 13.5V16.5C13 16.8709 13.0577 17.2282 13.1646 17.5637C12.2039 17.8579 11.1252 18 10 18C8.14526 18 6.41697 17.614 5.13499 16.7966C3.83281 15.9663 3 14.6912 3 13ZM15 13.5C15 12.6716 15.6716 12 16.5 12C16.9479 12 17.3495 12.1957 17.6251 12.508C17.8079 12.715 18.1238 12.7347 18.3309 12.552C18.5379 12.3692 18.5576 12.0533 18.3749 11.8462C17.9175 11.328 17.2468 11 16.5 11C15.1193 11 14 12.1193 14 13.5V16.5C14 17.8807 15.1193 19 16.5 19C17.8807 19 19 17.8807 19 16.5C19 15.1193 17.8807 14 16.5 14C15.9372 14 15.4178 14.186 15 14.4998V13.5ZM16.5 18C15.6716 18 15 17.3284 15 16.5C15 15.6716 15.6716 15 16.5 15C17.3284 15 18 15.6716 18 16.5C18 17.3284 17.3284 18 16.5 18Z" fill="#212121"/>
</svg>

<svg xmlns="http://www.w3.org/2000/svg" width="20" height="20"><path d="M6 6a4 4 0 1 1 8 0 4 4 0 0 1-8 0Zm-3 7c0-1.113.903-2 2.009-2h9.041A3.49 3.49 0 0 0 13 13.5v3c0 .37.058.728.165 1.064-.961.294-2.04.436-3.165.436-1.855 0-3.583-.386-4.865-1.203C3.833 15.967 3 14.69 3 13Zm12 .5a1.5 1.5 0 0 1 2.625-.992.5.5 0 0 0 .75-.662A2.5 2.5 0 0 0 14 13.5v3a2.5 2.5 0 1 0 1-2v-1Zm1.5 4.5a1.5 1.5 0 1 1 0-3 1.5 1.5 0 0 1 0 3Z"/></svg>
